X:23
T: DAS WANDERN IST DES MUELLERS LUST
N: B0509
O: Europa, Mitteleuropa, Deutschland
R: Wander - Lied
M: 2/4
L: 1/16
K: Bb
F2 | B3FD2E2 | F3GF2
B2 | d3cB2c2 | d3ed2B2 | d4c4 | B4z2
F2 | c2c2dc=Bc | A2c2F2
F2 | c2c2dc=Bc | A2c2F2
F2 | G2A2B2c2 | d3cB2
d2 | f4A4 | B4z2

@@@ Tune index: 2241
